X:1
T:Opus Dexter in C major
T:Opus Dexter in C major
T:James Banks
T:bi Mutopia-2006/08/30-811 - Public Domain
T:bi Mutopia-2006/08/30-811 - Public Domain
C:James Banks
Z:bi Mutopia-2006/08/30-811 - Public Domain
%%score ( 1 2 )
L:1/8
Q:1/4=105
M:3/4
K:C
V:1 treble nm="Tubular Bells" snm="T.B."
V:2 treble 
V:1
 [fc']ac'a[ec']a | [_eb]gbg[da]f | [fc']ac'a[ec']a | [_eb]gbg[da]f | gegege | ^gegege | aeaeae | %7
 ^gegege | gegege | ^gegege | afafaf | ^gegege | gegege | gegege | gegege | e4 z2 | z6 || ececgc | %18
 ececgc | ececgc | ececgc | ececgc | ececgc | ececgc | ececgc | Acacfc | gecege | Acfcdc | ecGcec | %29
 Acacfc | gecege | ABcfed | c6 | cGcGeG | cGcGeG | cGcGeG | cGcGeG | cGcGeG | cGcGeG | cGcGeG | %40
 cGcGeG | cGcGeG | cGEGEC | G,CECEG | c6 || A,2 C2 D2 | E6 | F2 C2 D2 | E6 | A,2 C2 D2 | E6 | %51
 F2 E2 D2 | C6 | aaaaaa | gggggg | ffffff | eeeeee | aaaaaa | e2 c2 c2 | c2 c2 d2 | ^g2 ^f2 g2 | %61
 aeaeae | aeaec'e | aeaec'e | aeaec'e | aeaec'e | aeaec'e | aeaebe | aeaebe | aeaec'e | aeaec'e | %71
 aeaec'e | aeaec'e | aeaec'e | aeaec'e | aeaec'e | aeaec'e | aeceae | gecege | fdAdfd | fdAdfd | %81
 aeceae | gecege | fdAFAc | e6 | C2!<(! C/C/C CC!<)! | C2!<(! CCCC!<)! | C2!<(! C/C/C CC!<)! | %88
 ece!<(!cgc!<)! | ece!<(!cgc!<)! | ece!<(!cgc!<)! | ececgc | ece!<(!cgc!<)! | ece!<(!cgc!<)! | %94
 ece!<(!cgc!<)! | ece!<(!cgc!<)! | ece!<(!cgc!<)! | ece!<(!cgc!<)! | ece!<(!cgc!<)! | %99
 ece!<(!cgc!<)! | ece!<(!cgc!<)! | ece!<(!cgc!<)! | ece!<(!cgc!<)! | ece!<(!cgc!<)! | %104
 ece!<(!cgc!<)! | ece!<(!cgc!<)! | ece!<(!cgc!<)! | ece!<(!cgc!<)! | ece!<(!cgc!<)! | %109
 ece!<(!cgc!<)! | ececec | ececec | ececec | ececec | cGcGdG | eGeGeG | cGcGdG | eGeGeG | cGcGdG | %119
 eGeGeG | eBeBeB | eBeBeB | cGcGeG | cGcGdG | cGcGeG | cGcGeG | cGcGeG | cGcGdG | cGcGeG | cGcGeG | %130
 cGcGeG | cGcGeG | cGcGeG | cGcGeG | cGcGeG | cGcGeG | cGcGeG | cGcGeG | cBGBcB | cGcGeG | cBGBcB | %141
 cB^GBcB | Acacfc | gecege | Acfcec | ecGcec | Acacfc | gecege | ABcfed | e2 cB G2 | Ac ac fc | %151
 e2 c2 c2 |"^rit." f2 e2 d2 | !fermata![G,CEc]6 |] %154
V:2
 x6 | x6 | x6 | x6 | c4 c2 | ^c4 c2 | d4 d2 | ^c4 c2 | c4 c2 | ^c4 c2 | d4 d2 | ^c4 c2 | c4 c2 | %13
 c4 c2 | c4 c2 | c4 x2 | x6 || C6 | A,6 | B,6 | z6 | C6 | A,6 | B,6 | z6 | x6 | x6 | x6 | x6 | x6 | %30
 x6 | x6 | x6 | C6 | A,6 | B,6 | z6 | C6 | A,6 | B,6 | z6 | C6 | x6 | x6 | x6 || x6 | x6 | x6 | %48
 x6 | x6 | x6 | x6 | x6 | A,2 C2 D2 | C6 | F2 C2 D2 | E3 DCB, | A,2 C2 D2 | EF G4 | A2 G2 F2 | %60
 E2 E2 E2 | C6 | D6 | E6 | F6 | ^F6 | G6 | ^G6 | z4 G,2 | A,6 | C6 | D6 | E6 | F6 | ^F6 | G6 | %76
 ^G6 | A6 | G6 | F6 | E6 | A6 | G6 | F6 | C2!<(! CCCC!<)! | x6 | x6 | x6 | C3 CCC | A,3 A,A,A, | %90
 B,3 B,B,B, | x6 | C3 CCC | A,3 A,A,A, | B,3 B,B,B, | B,3 G,G,G, | A,3 AAA | F3 FFF | G3 GGG | %99
 E3 EEE | F3 FFF | D3 DDD | E3 EEE | C3 GGG | A,3 AAA | F3 FFF | G3 GGG | E3 EEE | F3 FFF | %109
 D3 DDD | A,6 | x6 | x6 | x6 | A,4 F2 | C6 | A,4 B,2 | C6 | A,4 B,2 | C6 | E6 | E3 E3 | F6 | %123
 A,4 B,2 | C6 | E6 | F6 | A,4 B,2 | C6 | E6 | F6 | E6 | F6 | E6 | F6 | E6 | C6 | x6 | x6 | x6 | %140
 x6 | x6 | A,2 C2 D2 | E6 | F2 C2 D2 | E3 DCB, | A,2 C2 D2 | E6 | F2 E2 D2 | C4 B,2 | A,2 C2 D2 | %151
 EF G4 | A2 G2 F2 | x6 |] %154

